X:197
T:Hide Head Blues
C:solo by Tim Stafford
N:Transcribed by Larry Tanner
R:bluegrass
L:1/8
Q:1/4=220
M:4/4
K:C
"C"z2 _B,=B, CD EG | c2 c2 c2 ^de | ^d=d cA dc Gc | G/E/E FE CG, _B,=B, | C2 CG, _B,=B, CD | 
EG c2 d^d e2 | ^d=d cA dc Bd | "G"g2 g2 gb gf | dc BG cB GF | "C"^D/E/c c2 c2 ce | 
c_B GF EC CD | ^D/E/E E2 D/E/C _B,G, | C2 CD A,/_B,/A, G,G, | _B,=B, C2 CE FD | 
EG c2 c2 de | eg ea g_b ag | eg ^f=f e^d ed | dc AG cG AG | "G"F^D Ec GF D/E/C | 
"C"F^D/E/ CG, _B,G, A,2 | G,2 _B,2 =B,2 C2 | _B,=B, C2 CG, _B,=B, | C2 CG, _B,=B, C_B, | 
B,G, _B,A, G,G, B,=B, | CD Ec2d e2 | eg ea gc' ag | a_b =bg ed gd | "G"gg dA dB cB | 
G2 GD GD F^D | "C"Ec ce c2 ce | c_B GF ^D/E/C C=D | ^D/E/G GF D/E/C _B,G, | C2 CC CD EG | 
c2 c2 ^d2 e2 | ^d2 e2 d2 e2 | ^d=d cA cd ^de | g_b a/b/a ge ag | ea gc' ag e^d | 
"G"e^d =dc AG c_B | "C"G_B ^F=F ^D/E/C FD/E/ | C2 CC _BG =BG | c2 c6 | 


